resources/images/remote-learning.svg

<svg width="24" height="16" xmlns="http://www.w3.org/2000/svg"><g fill="none" fill-rule="evenodd"><path d="M0-4h24v24H0z"/><path d="M20 14c1.1 0 2-.9 2-2V2c0-1.1-.9-2-2-2H4C2.9 0 2 .9 2 2v10c0 1.1.9 2 2 2H1c-.55 0-1 .45-1 1s.45 1 1 1h22c.55 0 1-.45 1-1s-.45-1-1-1h-3zM5 2h14c.55 0 1 .45 1 1v8c0 .55-.45 1-1 1H5c-.55 0-1-.45-1-1V3c0-.55.45-1 1-1z" fill="#B4C8F4" fill-rule="nonzero"/><g fill="#B4C8F4"><path d="M11.6 7.6c.992 0 1.8-.808 1.8-1.8S12.592 4 11.6 4s-1.8.808-1.8 1.8.808 1.8 1.8 1.8zM15.2 9.8c0-1.2-2.4-1.8-3.6-1.8C10.4 8 8 8.6 8 9.8v.6h7.2v-.6z"/></g></g></svg>

<?xml version="1.0" encoding="UTF-8"?>
<svg width="24px" height="16px" viewBox="0 0 24 16" version="1.1" xmlns="http://www.w3.org/2000/svg" xmlns:xlink="http://www.w3.org/1999/xlink">
    <!-- Generator: sketchtool 63.1 (101010) - https://sketch.com -->
    <title>F12225D0-CFD0-43F0-844C-3CC1CDACCE3B</title>
    <desc>Created with sketchtool.</desc>
    <g id="desktop" stroke="none" stroke-width="1" fill="none" fill-rule="evenodd">
        <g id="homepage" transform="translate(-285.000000, -358.000000)">
            <g id="Icons-/-dropdown-/-remote-learning" transform="translate(285.000000, 354.000000)">
                <g id="round-person_outline-24px">
                    <polygon id="Path" points="0 0 24 0 24 24 0 24"></polygon>
                </g>
                <g id="laptop-24px" transform="translate(0.000000, 4.000000)" fill="#B4C8F4" fill-rule="nonzero">
                    <path d="M20,14 C21.1,14 22,13.1 22,12 L22,2 C22,0.9 21.1,0 20,0 L4,0 C2.9,0 2,0.9 2,2 L2,12 C2,13.1 2.9,14 4,14 L1,14 C0.45,14 0,14.45 0,15 C0,15.55 0.45,16 1,16 L23,16 C23.55,16 24,15.55 24,15 C24,14.45 23.55,14 23,14 L20,14 Z M5,2 L19,2 C19.55,2 20,2.45 20,3 L20,11 C20,11.55 19.55,12 19,12 L5,12 C4.45,12 4,11.55 4,11 L4,3 C4,2.45 4.45,2 5,2 Z" id="Shape"></path>
                </g>
                <g id="Group" transform="translate(8.000000, 8.000000)" fill="#B4C8F4">
                    <path d="M3.6,3.6 C4.592,3.6 5.4,2.792 5.4,1.8 C5.4,0.808 4.592,0 3.6,0 C2.608,0 1.8,0.808 1.8,1.8 C1.8,2.792 2.608,3.6 3.6,3.6 Z" id="Path"></path>
                    <path d="M7.2,5.8 C7.2,4.6 4.8,4 3.6,4 C2.4,4 -1.45528034e-12,4.6 -1.45528034e-12,5.8 L-1.45528034e-12,6.4 L7.2,6.4 L7.2,5.8 Z" id="Path"></path>
                </g>
            </g>
        </g>
    </g>
</svg>
